packages/ckeditor5-ckbox/theme/icons/ckbox-image-edit.svg

<svg viewBox="0 0 20 20" xmlns="http://www.w3.org/2000/svg">
<path fill-rule="evenodd" clip-rule="evenodd" d="M5.80246 8.94156C5.57379 8.7129 5.21173 8.69384 4.96401 8.91298L1.42918 12.8003V3.15816H14.3585V8.40849L15.7876 7.08925V2.75799C15.7876 2.20538 15.3208 1.75757 14.7491 1.75757H1.04806C0.466864 1.75757 0 2.20538 0 2.75799V14.039C0 14.6011 0.466864 15.0489 1.03854 15.0489H7.62228V14.8211C7.62228 14.6971 7.67412 14.5787 7.76526 14.4945L12.2687 10.3375L11.9574 9.97057C11.8447 9.86611 11.6967 9.80807 11.543 9.80807C11.3893 9.80807 11.2413 9.86611 11.1285 9.97057L9.00381 11.9333L5.80246 8.94156ZM9.54154 6.36413C9.57343 6.60757 9.65295 6.84234 9.77557 7.05505C10.0232 7.48463 10.4314 7.79824 10.9102 7.92689C11.3891 8.05554 11.8995 7.9887 12.329 7.74106C12.7586 7.49342 13.0722 7.08527 13.2009 6.6064C13.3295 6.12753 13.2627 5.61717 13.015 5.18759C12.8924 4.97489 12.7291 4.78841 12.5344 4.63882C12.3397 4.48923 12.1175 4.37945 11.8804 4.31575C11.6433 4.25205 11.3959 4.23567 11.1525 4.26756C10.9091 4.29945 10.6743 4.37897 10.4616 4.50159C10.2489 4.62421 10.0624 4.78752 9.91281 4.98221C9.76321 5.17689 9.65343 5.39913 9.58973 5.63624C9.52603 5.87335 9.50965 6.12069 9.54154 6.36413Z"/><path d="M8.8736 15.9258V18.2425H11.191L18.0266 11.4077L15.7075 9.08861L8.8736 15.9275V15.9258ZM19.8185 9.61417C19.876 9.55717 19.9217 9.48933 19.9528 9.41459C19.984 9.33985 20 9.25968 20 9.17871C20 9.09774 19.984 9.01757 19.9528 8.94282C19.9217 8.86808 19.876 8.80025 19.8185 8.74325L18.372 7.30006C18.315 7.24255 18.2471 7.1969 18.1724 7.16575C18.0977 7.1346 18.0175 7.11856 17.9365 7.11856C17.8555 7.11856 17.7754 7.1346 17.7006 7.16575C17.6259 7.1969 17.5581 7.24255 17.5011 7.30006L16.369 8.42792L18.6881 10.747L19.8185 9.61417Z"/>
</svg>

<svg viewBox="0 0 20 20" xmlns="http://www.w3.org/2000/svg"><path clip-rule="evenodd" d="M5.802 8.942a.607.607 0 0 0-.838-.029L1.429 12.8V3.158h12.93v5.25l1.429-1.319V2.758c0-.553-.467-1-1.039-1H1.05c-.582 0-1.049.447-1.049 1v11.281c0 .562.467 1.01 1.039 1.01h6.583v-.228c0-.124.052-.242.143-.326l4.504-4.157-.312-.367a.61.61 0 0 0-.829 0l-2.124 1.962-3.202-2.991Zm3.74-2.578a1.87 1.87 0 1 0 3.707-.486 1.87 1.87 0 0 0-3.707.486Z"/><path d="M8.874 15.926v2.316h2.317l6.836-6.834-2.32-2.32-6.833 6.84v-.002Zm10.944-6.312a.612.612 0 0 0 0-.87L18.372 7.3a.614.614 0 0 0-.87 0l-1.133 1.128 2.32 2.319 1.13-1.133Z"/></svg>
